X: 80
T: Lauda Jerusalem
N: Derived from Mar2060-Lauda_Jerusalem.krn
C: Johannes Martini
%%abc-version 2.0
%%abcx-abcm2ps-target-version 5.9.1 (29 Sep 2008)
%%abc-creator hum2abc beta
%%abcx-conversion-date 2019/02/17 07:19:42
%%abc-edited-by Jesse Rodin
%%abc-edited-by Chris Gage 07-31-2014
%%abcx-initial-encoding-date 2014/10/06/
%%humdrum-veritas 519537790
%%humdrum-veritas-data 2546336608
%%linebreak <none>
%%barnumbers 0
L: 1/4
M: 4/2
Q: 1/2=120
%%staves {1 2}
V: 1 clef=treble
V: 2 clef=treble-8
K: C
[V:1] A4A2A2 | 
[V:2] c4c2c2 | 
[V:1] A4G2E2 | 
[V:2] c4B2G2 | 
[V:1] F4E3F | 
[V:2] A4G3A | 
[V:1] G2A4^G2 | 
[V:2] B2c2B4 | 
[V:1] A8 ||  
[V:2] A8 ||  
[V:1] A2A2A2A2 | 
[V:2] c2c2c2c2 | 
[V:1] A2A2A4 | 
[V:2] c2c2c4 | 
[V:1] A4A4 | 
[V:2] c4A4 | 
[V:1] G2A2B2A2- | 
[V:2] B2c2d2A2 | 
[V:1] A2^G2A4 | 
[V:2] B4A4 | 
[V:1] z4A4 | 
[V:2] z4c4 | 
[V:1] A2A2A4 | 
[V:2] c2c2c4 | 
[V:1] A2A2A4 | 
[V:2] c2c2c4 | 
[V:1] ^G2^F2G4 | 
[V:2] B2A2B4 | 
[V:1] A8 ||  
[V:2] A8 ||  
[V:1] A4A2A2 | 
[V:2] c4c2c2 | 
[V:1] A4A2A2 | 
[V:2] c4c2c2 | 
[V:1] A2A2A4 | 
[V:2] c2c2c4 | 
[V:1] A4z4 | 
[V:2] A4z4 | 
[V:1] A4A2A2 | 
[V:2] c4c2c2 | 
[V:1] A4G2E2 | 
[V:2] c4B2G2 | 
[V:1] F4E3F | 
[V:2] A4G3A | 
[V:1] G2A4^G^F | 
[V:2] B2c4BA | 
[V:1] ^G4A4 ||  
[V:2] B4A4 ||  
[V:1] A4A2A2 | 
[V:2] c4c2c2 | 
[V:1] A4A4 | 
[V:2] A4c4 | 
[V:1] A2A2A2B2- | 
[V:2] c2c2c2d2- | 
[V:1] B2A4^G2 | 
[V:2] d2c2B4 | 
[V:1] A4z4 | 
[V:2] A4z4 | 
[V:1] A4A2A2 | 
[V:2] c4c2c2 | 
[V:1] A2A2A4 | 
[V:2] c2c2c4 | 
[V:1] ^G2^F2G4 | 
[V:2] B2A2B4 | 
[V:1] A8 ||  
[V:2] A8 ||  
[V:1] A4A2A2 | 
[V:2] c4c2c2 | 
[V:1] A4A2B2- | 
[V:2] c4c2d2- | 
[V:1] B2A4^G2 | 
[V:2] d2c2B4 | 
[V:1] A4z4 | 
[V:2] A4z4 | 
[V:1] A2A2A4 | 
[V:2] c2c2c4 | 
[V:1] A2A2A4 | 
[V:2] c2c2A4 | 
[V:1] ^G2^F2G4 | 
[V:2] B2A2B4 | 
[V:1] A8 ||  
[V:2] A8 ||  
[V:1] A2A2A2A2 | 
[V:2] c2c2c2c2 | 
[V:1] A2A2A4 | 
[V:2] c2c2A4 | 
[V:1] A2B4A2- | 
[V:2] c2d4c2 | 
[V:1] A2^G2A4 | 
[V:2] B4A4 | 
[V:1] z4A2A2 | 
[V:2] z4c2c2 | 
[V:1] A2A2A4 | 
[V:2] c2c2c4 | 
[V:1] A2A2A2A2 | 
[V:2] c2c2c2c2 | 
[V:1] A4A4 | 
[V:2] c4c4 | 
[V:1] ^G2^F2G4 | 
[V:2] B2A2B4 | 
[V:1] A8 ||  
[V:2] A8 ||  
[V:1] A2A2A2A2 | 
[V:2] c2c2c2c2 | 
[V:1] A2A2A4 | 
[V:2] c2c2A4 | 
[V:1] A4A2A2 | 
[V:2] c4c2c2 | 
[V:1] A2B4A2- | 
[V:2] c2d4c2 | 
[V:1] A2^G2A4 | 
[V:2] B4A4 | 
[V:1] z4A2A2 | 
[V:2] z4c2c2 | 
[V:1] A2A2A2A2 | 
[V:2] c2c2c2c2 | 
[V:1] A4G4 | 
[V:2] c4B4 | 
[V:1] F3GA2B2- | 
[V:2] A3Bc2d2- | 
[V:1] B2A4^G2 | 
[V:2] d2c2B4 | 
[V:1] A8 ||  
[V:2] A8 ||  
[V:1] A2A2A2A2 | 
[V:2] c2c2c2c2 | 
[V:1] A4A2B2 | 
[V:2] c4c2d2 | 
[V:1] c2B4A2 | 
[V:2] e2d2c4 | 
[V:1] B4z4 | 
[V:2] B4z4 | 
[V:1] A4A2A2 | 
[V:2] c4c2c2 | 
[V:1] A4A2A2 | 
[V:2] c4c2c2 | 
[V:1] A2A2A4 | 
[V:2] c2c2A4 | 
[V:1] G2FEF4 | 
[V:2] B2AGA4 | 
[V:1] E3FG2A2- | 
[V:2] G3AB2c2 | 
[V:1] A2^G2A4 ||  
[V:2] B4A4 ||  
[V:1] A4A2A2 | 
[V:2] c4c2c2 | 
[V:1] A2A2A4 | 
[V:2] c2c2c4 | 
[V:1] G4A2B2- | 
[V:2] B4c2d2- | 
[V:1] B2A4^G2 | 
[V:2] d2c2B4 | 
[V:1] A4z4 | 
[V:2] A4z4 | 
[V:1] A2A2A2A2 | 
[V:2] c2c2c2c2 | 
[V:1] A2A2A4 | 
[V:2] c2c2c4 | 
[V:1] G2E2F4 | 
[V:2] B2G2A4 | 
[V:1] E2F2G2A2- | 
[V:2] G2A2B2c2- | 
[V:1] A2^G^FG4 | 
[V:2] c2BAB4 | 
[V:1] A8 ||  
[V:2] A8 ||  
[V:1] A4A2A2 | 
[V:2] c4c2c2 | 
[V:1] A4A2B2- | 
[V:2] c4c2d2- | 
[V:1] B2A4^G2 | 
[V:2] d2c2B4 | 
[V:1] A4z4 | 
[V:2] A4z4 | 
[V:1] A4A2A2 | 
[V:2] c4c2c2 | 
[V:1] A4G2FE | 
[V:2] c4B2AG | 
[V:1] F4E3F | 
[V:2] A4G3A | 
[V:1] G2A4^G2 | 
[V:2] B2c2B4 | 
[V:1] A8 ||  
[V:2] A8 ||  
[V:1] A4A4 | 
[V:2] c4c4 | 
[V:1] A2A2A2A2 | 
[V:2] c2c2c2c2 | 
[V:1] A2A2A4 | 
[V:2] c2c2c4 | 
[V:1] G4A2B2- | 
[V:2] B4c2d2- | 
[V:1] B2A4^G2 | 
[V:2] d2c2B4 | 
[V:1] A4z4 | 
[V:2] A4z4 | 
[V:1] A2A2A2A2 | 
[V:2] c2c2c2c2 | 
[V:1] A4G4 | 
[V:2] c4B4 | 
[V:1] F3GA2B2- | 
[V:2] A3Bc2d2- | 
[V:1] B2A4^G^F | 
[V:2] d2c4BA | 
[V:1] ^G4A4 |]  
[V:2] B4A4 |]  



